X:92
T:Paddy O Carrol. RH.092
R:Jig
S:Rev.R.Harrison’s MS,c1815,Cumbria
O:England
A:Temple Sowerby,Cumbria
Z:vmp.Simon Wilson. Review PJH, 2008.
M:6/8
L:1/8
Q:3/8=120
K:D
A/G/|.F.D.D .E.D.D|F>GF FED|AFF dFF|”tr”E>FE E2A/G/|!
FDD EDD|”tr”F>GF FED|AFF dFF|D>ED D2||!
a/g/|fdd ecc|BdB AFF|fd^a ec=a|dB^g a2a/=g/|!
fdd ecc|BdB AFB|AGF dAF|E>FE ” DC”E2|]

